domfk/img/icons/user.svg

<svg width="22" height="22" fill="none" xmlns="http://www.w3.org/2000/svg"><path d="M11 0C4.928 0 0 4.928 0 11s4.928 11 11 11 11-4.928 11-11S17.072 0 11 0zm0 3.3c1.826 0 3.3 1.474 3.3 3.3 0 1.826-1.474 3.3-3.3 3.3a3.296 3.296 0 01-3.3-3.3c0-1.826 1.474-3.3 3.3-3.3zm0 15.62a7.92 7.92 0 01-6.6-3.542c.033-2.189 4.4-3.388 6.6-3.388 2.189 0 6.567 1.199 6.6 3.388A7.92 7.92 0 0111 18.92z" fill="#fff"/></svg>

<svg width="22" height="22" viewBox="0 0 22 22" fill="none" xmlns="http://www.w3.org/2000/svg">
<path d="M11 0C4.928 0 0 4.928 0 11C0 17.072 4.928 22 11 22C17.072 22 22 17.072 22 11C22 4.928 17.072 0 11 0ZM11 3.3C12.826 3.3 14.3 4.774 14.3 6.6C14.3 8.426 12.826 9.9 11 9.9C9.174 9.9 7.7 8.426 7.7 6.6C7.7 4.774 9.174 3.3 11 3.3ZM11 18.92C8.25 18.92 5.819 17.512 4.4 15.378C4.433 13.189 8.8 11.99 11 11.99C13.189 11.99 17.567 13.189 17.6 15.378C16.181 17.512 13.75 18.92 11 18.92Z" fill="white"/>
</svg>
